src/pos-icons/folder-multiple-outline.svg

<svg height="24" viewBox="0 0 24 24" width="24" xmlns="http://www.w3.org/2000/svg"><path d="m22 4a2 2 0 0 1 2 2v10a2 2 0 0 1 -2 2h-16a2 2 0 0 1 -2-2v-12a2 2 0 0 1 2-2h6l2 2zm-20 2v14h18v2h-18a2 2 0 0 1 -2-2v-9-5zm4 0v10h16v-10z"/></svg>

<?xml version="1.0" encoding="UTF-8"?><!DOCTYPE svg PUBLIC "-//W3C//DTD SVG 1.1//EN" "http://www.w3.org/Graphics/SVG/1.1/DTD/svg11.dtd"><svg xmlns="http://www.w3.org/2000/svg" xmlns:xlink="http://www.w3.org/1999/xlink" version="1.1" id="mdi-folder-multiple-outline" width="24" height="24" viewBox="0 0 24 24"><path d="M22,4A2,2 0 0,1 24,6V16A2,2 0 0,1 22,18H6A2,2 0 0,1 4,16V4A2,2 0 0,1 6,2H12L14,4H22M2,6V20H20V22H2A2,2 0 0,1 0,20V11H0V6H2M6,6V16H22V6H6Z" /></svg>
